svgs/edifier_connect.svg

<svg width="192" height="192" viewBox="0 0 192 192" fill="none" xmlns="http://www.w3.org/2000/svg">
<path d="M98.6204 75.9846L112.801 45.3444C116.601 37.1322 113.075 27.3705 104.925 23.5411C96.7742 19.7117 87.086 23.2646 83.2854 31.4768L51.5885 99.9668C40.1867 124.603 50.7653 153.888 75.2165 165.377C99.6677 176.865 128.732 166.206 140.134 141.569L143.471 134.36C147.271 126.148 143.745 116.386 135.594 112.557C127.444 108.727 117.756 112.28 113.955 120.492M98.6204 75.9846L62.9613 153.036M98.6204 75.9846C102.421 67.7724 112.109 64.2195 120.26 68.0489C128.41 71.8783 131.936 81.64 128.136 89.8522L113.955 120.492M113.955 120.492L92.4765 166.903" stroke="black" stroke-width="12"/>
</svg>

<svg xmlns="http://www.w3.org/2000/svg" width="192" height="192" fill="none" viewBox="0 0 192 192"><path stroke="#000" stroke-width="12" d="m98.62 75.985 14.181-30.64c3.8-8.213.274-17.974-7.876-21.804s-17.839-.276-21.64 7.936L51.59 99.967c-11.402 24.636-.824 53.921 23.627 65.41 24.452 11.488 53.516.829 64.918-23.808l3.337-7.209c3.8-8.212.274-17.974-7.877-21.803s-17.838-.277-21.639 7.935M98.62 75.985l-35.659 77.051m35.66-77.051c3.8-8.213 13.488-11.766 21.639-7.936s11.676 13.591 7.876 21.803l-14.181 30.64m0 0-21.478 46.411"/></svg>
